X:76
T:Duke of Marlborough
R:polka 32
S:Rees Wesson
Z:P J Headford
M:2/4
L:1/16
Q:1/4=110
K:D
|:D2F2 FGFE|D2F2 FGFE|C2E2 EFED|C2E2 EFGF|
D2F2 FGFE|D2F2 A2d2|cBA2 G2E2|D4 D4:|]
|:d3c d3c|d2f2 e2d2|c2A2 A3B|c2d2 e2c2|
d3c d3c|d2f2 e2d2|cBA2 G2E2|D4 D4:|]

